dist/assets/images/footer/instIco.svg

<svg width="45" height="45" viewBox="0 0 45 45" fill="none" xmlns="http://www.w3.org/2000/svg">
<path fill-rule="evenodd" clip-rule="evenodd" d="M13.9969 1.99875C16.1962 1.8975 16.8975 1.875 22.5 1.875C28.1025 1.875 28.8038 1.89937 31.0013 1.99875C33.1988 2.09812 34.6987 2.44875 36.0112 2.95688C37.3856 3.47625 38.6325 4.28812 39.6637 5.33812C40.7137 6.3675 41.5238 7.6125 42.0413 8.98875C42.5513 10.3013 42.9 11.8013 43.0013 13.995C43.1025 16.1981 43.125 16.8994 43.125 22.5C43.125 28.1025 43.1006 28.8037 43.0013 31.0031C42.9019 33.1969 42.5513 34.6969 42.0413 36.0094C41.5237 37.3858 40.7124 38.6329 39.6637 39.6637C38.6325 40.7137 37.3856 41.5238 36.0112 42.0413C34.6987 42.5513 33.1987 42.9 31.005 43.0013C28.8037 43.1025 28.1025 43.125 22.5 43.125C16.8975 43.125 16.1962 43.1006 13.9969 43.0013C11.8031 42.9019 10.3031 42.5513 8.99063 42.0413C7.61423 41.5237 6.36716 40.7124 5.33625 39.6637C4.28696 38.6338 3.47497 37.3873 2.95688 36.0112C2.44875 34.6987 2.1 33.1987 1.99875 31.005C1.8975 28.8019 1.875 28.1006 1.875 22.5C1.875 16.8975 1.89937 16.1962 1.99875 13.9987C2.09812 11.8013 2.44875 10.3013 2.95688 8.98875C3.47573 7.61265 4.28835 6.36621 5.33812 5.33625C6.36758 4.28719 7.61339 3.47521 8.98875 2.95688C10.3013 2.44875 11.8013 2.1 13.995 1.99875H13.9969ZM30.8344 5.71125C28.6594 5.61188 28.0069 5.59125 22.5 5.59125C16.9931 5.59125 16.3406 5.61188 14.1656 5.71125C12.1537 5.80312 11.0625 6.13875 10.335 6.42188C9.37313 6.79688 8.685 7.24125 7.96313 7.96313C7.27883 8.62885 6.75221 9.43928 6.42188 10.335C6.13875 11.0625 5.80312 12.1537 5.71125 14.1656C5.61188 16.3406 5.59125 16.9931 5.59125 22.5C5.59125 28.0069 5.61188 28.6594 5.71125 30.8344C5.80312 32.8462 6.13875 33.9375 6.42188 34.665C6.75187 35.5594 7.27875 36.3713 7.96313 37.0369C8.62875 37.7212 9.44063 38.2481 10.335 38.5781C11.0625 38.8613 12.1537 39.1969 14.1656 39.2887C16.3406 39.3881 16.9913 39.4087 22.5 39.4087C28.0087 39.4087 28.6594 39.3881 30.8344 39.2887C32.8462 39.1969 33.9375 38.8613 34.665 38.5781C35.6269 38.2031 36.315 37.7588 37.0369 37.0369C37.7212 36.3713 38.2481 35.5594 38.5781 34.665C38.8613 33.9375 39.1969 32.8462 39.2887 30.8344C39.3881 28.6594 39.4087 28.0069 39.4087 22.5C39.4087 16.9931 39.3881 16.3406 39.2887 14.1656C39.1969 12.1537 38.8613 11.0625 38.5781 10.335C38.2031 9.37313 37.7588 8.685 37.0369 7.96313C36.3711 7.27888 35.5607 6.75227 34.665 6.42188C33.9375 6.13875 32.8462 5.80312 30.8344 5.71125ZM19.8656 28.8581C21.3369 29.4706 22.9751 29.5532 24.5005 29.092C26.0259 28.6307 27.3439 27.6542 28.2293 26.3292C29.1147 25.0042 29.5126 23.4129 29.3551 21.8271C29.1976 20.2413 28.4944 18.7593 27.3656 17.6344C26.6461 16.9153 25.776 16.3646 24.8181 16.0222C23.8602 15.6797 22.8383 15.5538 21.8259 15.6537C20.8136 15.7535 19.8359 16.0766 18.9634 16.5996C18.0909 17.1227 17.3451 17.8326 16.7799 18.6785C16.2147 19.5243 15.8441 20.4849 15.6947 21.4912C15.5453 22.4974 15.6209 23.5243 15.916 24.4978C16.2111 25.4714 16.7184 26.3674 17.4014 27.1214C18.0843 27.8753 18.9259 28.4685 19.8656 28.8581ZM15.0037 15.0037C15.9882 14.0193 17.1568 13.2384 18.4431 12.7057C19.7293 12.1729 21.1078 11.8987 22.5 11.8987C23.8922 11.8987 25.2707 12.1729 26.5569 12.7057C27.8431 13.2384 29.0118 14.0193 29.9963 15.0037C30.9807 15.9882 31.7616 17.1568 32.2943 18.4431C32.8271 19.7293 33.1013 21.1078 33.1013 22.5C33.1013 23.8922 32.8271 25.2707 32.2943 26.5569C31.7616 27.8431 30.9807 29.0118 29.9963 29.9963C28.0081 31.9844 25.3116 33.1013 22.5 33.1013C19.6884 33.1013 16.9919 31.9844 15.0037 29.9963C13.0156 28.0081 11.8987 25.3116 11.8987 22.5C11.8987 19.6884 13.0156 16.9919 15.0037 15.0037ZM35.4525 13.4775C35.6964 13.2474 35.8917 12.9707 36.0268 12.6637C36.1619 12.3568 36.234 12.0258 36.2389 11.6905C36.2438 11.3552 36.1814 11.0223 36.0553 10.7115C35.9292 10.4008 35.7421 10.1185 35.5049 9.88132C35.2678 9.64419 34.9855 9.45705 34.6747 9.33097C34.364 9.2049 34.0311 9.14245 33.6958 9.14734C33.3604 9.15223 33.0295 9.22435 32.7225 9.35943C32.4156 9.49451 32.1389 9.6898 31.9087 9.93375C31.4612 10.4082 31.2162 11.0384 31.2257 11.6905C31.2352 12.3426 31.4985 12.9654 31.9597 13.4266C32.4209 13.8878 33.0436 14.1511 33.6958 14.1606C34.3479 14.1701 34.9781 13.925 35.4525 13.4775Z" fill="black"/>
</svg>

<svg width="45" height="45" fill="none" xmlns="http://www.w3.org/2000/svg"><path fill-rule="evenodd" clip-rule="evenodd" d="M13.997 1.999c2.2-.102 2.9-.124 8.503-.124 5.602 0 6.304.024 8.501.124 2.198.1 3.698.45 5.01.958a10.146 10.146 0 013.653 2.381 10.074 10.074 0 012.377 3.65c.51 1.313.859 2.813.96 5.007.102 2.203.124 2.904.124 8.505 0 5.602-.024 6.304-.124 8.503-.1 2.194-.45 3.694-.96 5.006a10.118 10.118 0 01-2.377 3.655 10.113 10.113 0 01-3.653 2.377c-1.312.51-2.812.859-5.006.96-2.201.102-2.902.124-8.505.124-5.602 0-6.304-.024-8.503-.124-2.194-.1-3.694-.45-5.006-.96a10.119 10.119 0 01-3.655-2.377 10.109 10.109 0 01-2.38-3.653C2.45 34.7 2.1 33.2 2 31.005c-.102-2.203-.124-2.904-.124-8.505 0-5.602.024-6.304.124-8.501.1-2.198.45-3.698.958-5.01a10.117 10.117 0 012.381-3.653 10.11 10.11 0 013.65-2.38C10.302 2.45 11.802 2.1 13.996 2h.002zM30.834 5.71c-2.175-.1-2.827-.12-8.334-.12s-6.16.02-8.334.12c-2.012.092-3.104.428-3.831.71-.962.376-1.65.82-2.372 1.542a6.397 6.397 0 00-1.541 2.372c-.283.727-.619 1.819-.71 3.83-.1 2.176-.12 2.828-.12 8.335 0 5.507.02 6.16.12 8.334.091 2.012.427 3.104.71 3.831.33.894.857 1.706 1.541 2.372a6.403 6.403 0 002.372 1.541c.727.283 1.819.619 3.83.71 2.176.1 2.826.12 8.335.12s6.16-.02 8.334-.12c2.012-.091 3.104-.427 3.831-.71.962-.375 1.65-.82 2.372-1.541a6.403 6.403 0 001.541-2.372c.283-.727.619-1.819.71-3.83.1-2.176.12-2.828.12-8.335 0-5.507-.02-6.16-.12-8.334-.091-2.012-.427-3.104-.71-3.831-.375-.962-.82-1.65-1.541-2.372a6.4 6.4 0 00-2.372-1.541c-.727-.283-1.819-.619-3.83-.71zM19.866 28.858a6.88 6.88 0 007.5-11.224 6.88 6.88 0 00-11.671 3.857 6.88 6.88 0 004.17 7.367zm-4.862-13.854a10.6 10.6 0 1114.991 14.991 10.6 10.6 0 01-14.991-14.991zm20.448-1.527a2.507 2.507 0 10-3.44-3.647 2.507 2.507 0 003.44 3.647z" fill="#000"/></svg>
